X: 305689
M: 6/8
L: 1/8
K: A
e/d/ |\
cde fga | a2B Bdf | ecA AGA | B^de Ee=d |\
cde fga | a2B Bdf | eaA ceA | (B3 A2) H|]
fee eGA | BcB Bc^d | d^Bc c^de | ^daf baf | eee "^D.C."e2 |]


